src/assets/filled/RefreshCircle.svg

<?xml version="1.0" encoding="UTF-8"?>
<svg width="24" height="24" viewBox="0 0 24 24" xmlns="http://www.w3.org/2000/svg">
 <path d="m12 2c-5.52 0-10 4.48-10 10s4.48 10 10 10 10-4.48 10-10-4.48-10-10-10zm-5.4 9.23c0.17-1.19 0.7-2.26 1.53-3.1 2-1.99 5.15-2.1 7.29-0.36v-0.95c0-0.41 0.34-0.75 0.75-0.75s0.75 0.34 0.75 0.75v2.67c0 0.41-0.34 0.75-0.75 0.75h-2.67c-0.41 0-0.75-0.34-0.75-0.75s0.34-0.75 0.75-0.75h0.75c-1.55-1.08-3.69-0.93-5.07 0.45-0.6 0.6-0.98 1.38-1.11 2.25-0.05 0.37-0.37 0.64-0.74 0.64-0.04 0-0.07 0-0.11-0.01-0.39-0.05-0.68-0.43-0.62-0.84zm9.27 4.64c-1.07 1.07-2.47 1.6-3.87 1.6-1.22 0-2.43-0.43-3.43-1.24v0.94c0 0.41-0.34 0.75-0.75 0.75s-0.75-0.34-0.75-0.75v-2.67c0-0.41 0.34-0.75 0.75-0.75h2.67c0.41 0 0.75 0.34 0.75 0.75s-0.34 0.75-0.75 0.75h-0.75c1.55 1.08 3.69 0.93 5.07-0.45 0.6-0.6 0.98-1.38 1.11-2.25 0.06-0.41 0.43-0.7 0.85-0.64 0.41 0.06 0.69 0.44 0.64 0.85-0.18 1.21-0.71 2.28-1.54 3.11z"/>
</svg>

<svg width="24" height="24" viewBox="0 0 24 24"  xmlns="http://www.w3.org/2000/svg">
<path d="M12 2C6.48 2 2 6.48 2 12C2 17.52 6.48 22 12 22C17.52 22 22 17.52 22 12C22 6.48 17.52 2 12 2ZM6.6 11.23C6.77 10.04 7.3 8.97 8.13 8.13C10.13 6.14 13.28 6.03 15.42 7.77V6.82C15.42 6.41 15.76 6.07 16.17 6.07C16.58 6.07 16.92 6.41 16.92 6.82V9.49C16.92 9.9 16.58 10.24 16.17 10.24H13.5C13.09 10.24 12.75 9.9 12.75 9.49C12.75 9.08 13.09 8.74 13.5 8.74H14.25C12.7 7.66 10.56 7.81 9.18 9.19C8.58 9.79 8.2 10.57 8.07 11.44C8.02 11.81 7.7 12.08 7.33 12.08C7.29 12.08 7.26 12.08 7.22 12.07C6.83 12.02 6.54 11.64 6.6 11.23ZM15.87 15.87C14.8 16.94 13.4 17.47 12 17.47C10.78 17.47 9.57 17.04 8.57 16.23V17.17C8.57 17.58 8.23 17.92 7.82 17.92C7.41 17.92 7.07 17.58 7.07 17.17V14.5C7.07 14.09 7.41 13.75 7.82 13.75H10.49C10.9 13.75 11.24 14.09 11.24 14.5C11.24 14.91 10.9 15.25 10.49 15.25H9.74C11.29 16.33 13.43 16.18 14.81 14.8C15.41 14.2 15.79 13.42 15.92 12.55C15.98 12.14 16.35 11.85 16.77 11.91C17.18 11.97 17.46 12.35 17.41 12.76C17.23 13.97 16.7 15.04 15.87 15.87Z" />
</svg>
